assets/symbols/mulberry/closed_eyes.svg

<svg height="850.394" viewBox="0 0 850.394 850.394" width="850.394" xmlns="http://www.w3.org/2000/svg"><path d="m71.5 242.38h695.97v325.96h-695.97z" fill="#ffeec8"/><g fill="none"><g stroke="#231f20"><path d="m361.74 441.65c-13.12 26.229-51.53 51.52-104.13 58.319-8.73 1.13-18.49 1.71-28.57 1.09-6.06-.38-12.24-1.189-18.37-2.569-5.65-1.271-11.26-3.03-16.71-5.4-8.74-3.76-17.08-9.07-24.52-16.37-21.24-20.84-20.44-42.48-20.44-42.48" stroke-width="14"/><path d="m116.14 419.41s56.99-49.34 130.25-47.03c38.07 1.2 97.55 15.87 112.54 59.9" stroke-width="7"/><path d="m86.48 326.69s90.36-65.21 199.18-27.65c45.29 15.63 74.95 41.28 74.95 41.28" stroke-width="21"/><path d="m130.69 509.86s16.03-40.88 27.25-40.88m-8.42 55.18s16.04-40.88 27.26-40.88m-5.67 52.85s11.85-40.54 22.85-43.04c.21-.06.43-.09.65-.109m3.84 49.809s3.75-34.66 12.22-44.3c1.04-1.181 2.15-1.99 3.33-2.311m8.76 41.991s-2.17-32.8 6.28-37.11c.11-.069.22-.119.34-.17m10.61 37.94s-2.24-33.67 6.62-37.28m14.48 36.88s-5.63-33.37 2.83-37.67m15.59 36.25s-5.63-33.359 2.82-37.66" stroke-linecap="round" stroke-linejoin="round" stroke-width="6.194"/><path d="m486.35 442.15c13.11 26.229 51.521 51.52 104.131 58.319 8.72 1.13 18.479 1.71 28.56 1.09 6.06-.38 12.229-1.189 18.36-2.569 5.659-1.271 11.279-3.03 16.739-5.391 8.74-3.779 17.07-9.08 24.5-16.369 21.25-20.851 20.45-42.49 20.45-42.49" stroke-width="14"/><path d="m731.95 419.92s-56.99-49.35-130.25-47.04c-38.08 1.21-97.561 15.88-112.54 59.91" stroke-width="7"/><path d="m761.61 327.19s-90.36-65.21-199.19-27.65c-45.28 15.63-74.95 41.28-74.95 41.28" stroke-width="21"/><path d="m717.4 510.36s-16.04-40.88-27.271-40.88m8.431 55.18s-16.029-40.88-27.25-40.88m5.66 52.85s-11.83-40.479-22.83-43.03c-.22-.06-.449-.1-.67-.119m-3.84 49.809s-3.74-34.67-12.229-44.3c-1.03-1.181-2.131-1.98-3.311-2.3m-8.77 41.98s2.18-32.82-6.28-37.11c-.11-.06-.22-.109-.33-.159m-10.62 37.929s2.24-33.67-6.609-37.28m-14.491 36.88s5.63-33.359-2.82-37.67m-15.59 36.25s5.63-33.359-2.83-37.66" stroke-linecap="round" stroke-linejoin="round" stroke-width="6.194"/></g><path d="m0 0h850.394v850.394h-850.394z"/></g></svg>

<svg xmlns="http://www.w3.org/2000/svg" width="850.394" height="850.394" viewBox="0 0 850.394 850.394" overflow="visible"><path fill="#ffeec8" d="M71.5 242.38h695.97v325.96H71.5z"/><g fill="none" stroke="#231f20"><path d="M361.74 441.65c-13.12 26.229-51.53 51.52-104.13 58.319-8.73 1.13-18.49 1.71-28.57 1.09-6.06-.38-12.24-1.189-18.37-2.569-5.65-1.271-11.26-3.03-16.71-5.4-8.74-3.76-17.08-9.07-24.52-16.37C148.2 455.88 149 434.24 149 434.24" stroke-width="14"/><path d="M116.14 419.41s56.99-49.34 130.25-47.03c38.07 1.2 97.55 15.87 112.54 59.9" stroke-width="7"/><path d="M86.48 326.69s90.36-65.21 199.18-27.65c45.29 15.63 74.95 41.28 74.95 41.28" stroke-width="21"/><path d="M130.69 509.86s16.03-40.88 27.25-40.88M149.52 524.16s16.04-40.88 27.26-40.88M171.11 536.13s11.85-40.54 22.85-43.04c.21-.06.43-.09.65-.109M198.45 542.79s3.75-34.66 12.22-44.3c1.04-1.181 2.15-1.99 3.33-2.311M222.76 538.17s-2.17-32.8 6.28-37.11c.11-.069.22-.119.34-.17M239.99 538.83s-2.24-33.67 6.62-37.28M261.09 538.43s-5.63-33.37 2.83-37.67M279.51 537.01s-5.63-33.359 2.82-37.66" stroke-width="6.194" stroke-linecap="round" stroke-linejoin="round"/><path d="M486.35 442.15c13.11 26.229 51.521 51.52 104.131 58.319 8.72 1.13 18.479 1.71 28.56 1.09 6.06-.38 12.229-1.189 18.36-2.569 5.659-1.271 11.279-3.03 16.739-5.391 8.74-3.779 17.07-9.08 24.5-16.369 21.25-20.851 20.45-42.49 20.45-42.49" stroke-width="14"/><path d="M731.95 419.92s-56.99-49.35-130.25-47.04c-38.08 1.21-97.561 15.88-112.54 59.91" stroke-width="7"/><path d="M761.61 327.19s-90.36-65.21-199.19-27.65c-45.28 15.63-74.95 41.28-74.95 41.28" stroke-width="21"/><path d="M717.4 510.36s-16.04-40.88-27.271-40.88M698.56 524.66s-16.029-40.88-27.25-40.88M676.97 536.63s-11.83-40.479-22.83-43.03c-.22-.06-.449-.1-.67-.119M649.63 543.29s-3.74-34.67-12.229-44.3c-1.03-1.181-2.131-1.98-3.311-2.3M625.32 538.67s2.18-32.82-6.28-37.11c-.11-.06-.22-.109-.33-.159M608.09 539.33s2.24-33.67-6.609-37.28M586.99 538.93s5.63-33.359-2.82-37.67M568.58 537.51s5.63-33.359-2.83-37.66" stroke-width="6.194" stroke-linecap="round" stroke-linejoin="round"/></g><path fill="none" d="M0 0h850.394v850.394H0z"/></svg>
